!!!id: EG045
!!!page: 118-119
!!!COM: Anonymous
!!!LYR: Anonymous
!!!PTL@@FR: Chansons Populaires du Canada
!!!OTL@@FR: C'est dans la ville de Rouen
!!!PUB: G. E. Desbarats
!!!YEM:
!!!PDT: 1865
!!!SMA:
!!!OMD:
!!!AGN-Laforte:
!!!AGN-type:
!!!AGN-rime:
**kern
*clefG2
*k[b-]
*F:
*M2/4
*
*
=1
8cc
8cc
8b-
=2
4a
4f
=3
8b-/
8a
8g
8cc
=4
*M2/8
8cc
8b-
!!LO:PB:g=original
=5
*M2/4
4a
4f
=6
8b-/
8a
8g
8g
=7
8c
8g
8g
8g
=8
8g
8g
8g
8g
!!LO:PB:g=original
=9
*M2/8
8g
8f
=10
*M2/4
4a
8g
8r
=11
8c
8g
8g
8g
=12
8g
8g
4g
!!LO:PB:g=original
=13
8g
8b-/
8a
8g
=14
4f
8f
8r
=15
8r
=:|!
8r
8r
==||
*
*
==|
!!!RNB: Final eighth rest flipped backward in original
*-
